**kern
*staff1
*I"Piano
=1- 	=1-
*clefG2
*k[f#]
*G:
*M4/4
1r
=2 	=2
1r
=3 	=3
1r
=4 	=4
1r
=5 	=5
2b\
8d/L
8e/
8f#/
8g/J
=6 	=6
4.b\
8a/
8b\
4.a/
=7 	=7
[2g/
8g/L]
8a/
8b/
8g/J
=8 	=8
2.f#/
4fn/
=9 	=9
!!linebreak:original
4dd\
12cc/L
12g/
12e-/J
4.b\
8a/
=10 	=10
4ee\
12dd/L
12a/
12fn/J
4.cc\
8b\
=11 	=11
4dd\
12cc/L
12g/
12e-/J
4b\
4dd\
=12 	=12
[1b
=13 	=13
1b]
=14 	=14
2b\
8d/L
8e/
8f#/
8g/J
=15 	=15
!!linebreak:original
4.b\
8a/
8b\
4.a/
=16 	=16
[2g/
8g/L]
8a/
8b/
8g/J
=17 	=17
2.f#/
4fn/
=18 	=18
4dd\
12cc/L
12g/
12e-/J
4.b\
8a/
=19 	=19
4ee\
12dd/L
12a/
12fn/J
4.cc\
8b\
=20 	=20
!!linebreak:original
4dd\
12cc/L
12g/
12e-/J
4b\
4b\
=21 	=21
[1g
=22 	=22
1g]
=23|| 	=23||
4.g/
8fn/
4.g/
8f/
=24 	=24
4.b-\
8a-/
4.b-\
8a-/
=25 	=25
1b
=26 	=26
1b-
=27 	=27
!!linebreak:original
4.a/
8g/
4.a/
8g/
=28 	=28
4.cc\
8b-\
4.cc\
8b-\
=29 	=29
2.cc#\
4cc#\
=30 	=30
2.cc\
4cc\
=31|| 	=31||
2b\
8d/L
8e/
8f#/
8g/J
=32 	=32
4.b\
8a/
8b\
4.a/
=33 	=33
!!linebreak:original
[2g/
8g/L]
8a/
8b/
8g/J
=34 	=34
2.f#/
4fn/
=35 	=35
4dd\
12cc/L
12g/
12e-/J
4.cc\
8a/
=36 	=36
4ee\
12dd/L
12a/
12fn/J
4.cc\
8b\
=37 	=37
4dd\
12cc/L
12g/
12e-/J
4b\
4b\
=38 	=38
!!linebreak:original
[1g
=39 	=39
2.g/]
4r
== 	==
*-
